src/icons/scalable/actions/share-symbolic.svg

<?xml version="1.0" encoding="UTF-8"?>
<svg xmlns="http://www.w3.org/2000/svg" height="16px" viewBox="0 0 16 16" width="16px"><g fill="#222222"><path d="m 4 5.992188 h 1 c 0.257812 0 0.527344 -0.128907 0.71875 -0.3125 l 1.28125 -1.28125 v 6.59375 h 2 v -6.59375 l 1.28125 1.28125 c 0.191406 0.183593 0.410156 0.3125 0.71875 0.3125 h 1 v -1 c 0 -0.308594 -0.089844 -0.550782 -0.28125 -0.75 l -3.71875 -3.65625 l -3.71875 3.65625 c -0.191406 0.199218 -0.28125 0.441406 -0.28125 0.75 z m 0 0"/><path d="m 1.003906 11.964844 c 0 1.664062 1.371094 3.035156 3.035156 3.035156 h 7.917969 c 1.664063 0 3.03125 -1.371094 3.03125 -3.035156 v -1.972656 h -2 v 1.972656 c 0 0.589844 -0.441406 1.035156 -1.03125 1.035156 h -7.917969 c -0.589843 0 -1.035156 -0.445312 -1.035156 -1.035156 v -1.972656 h -2 z m 0 0"/><path d="m 4.039062 6.960938 c -1.664062 0 -3.035156 1.367187 -3.035156 3.03125 v 1.976562 h 2 v -1.976562 c 0 -0.589844 0.445313 -1.03125 1.035156 -1.03125 h 0.960938 v -2 z m 6.960938 0 v 2 h 0.957031 c 0.589844 0 1.03125 0.441406 1.03125 1.03125 v 1.976562 h 2 v -1.976562 c 0 -1.664063 -1.367187 -3.03125 -3.03125 -3.03125 z m 0 0"/></g></svg>

<svg xmlns="http://www.w3.org/2000/svg" width="16" height="16" viewBox="0 0 16 16"><g fill="#222"><path d="M4 5.992h1c.258 0 .527-.129.719-.312L7 4.398v6.594h2V4.398l1.281 1.282c.192.183.41.312.719.312h1v-1c0-.308-.09-.55-.281-.75L8 .586 4.281 4.242c-.191.2-.281.442-.281.75zm0 0"/><path d="M1.004 11.965A3.05 3.05 0 0 0 4.039 15h7.918a3.05 3.05 0 0 0 3.031-3.035V9.992h-2v1.973A1.01 1.01 0 0 1 11.957 13H4.039c-.59 0-1.035-.445-1.035-1.035V9.992h-2zm0 0"/><path d="M4.04 6.96a3.05 3.05 0 0 0-3.036 3.032v1.977h2V9.992c0-.59.445-1.031 1.035-1.031H5v-2zm6.96 0v2h.957c.59 0 1.031.442 1.031 1.032v1.977h2V9.992a3.044 3.044 0 0 0-3.031-3.031zm0 0"/></g></svg>
